X:2
T:How Long Has This Been Going On
C:George Gershwin
L:1/8
M:C
I:linebreak $
K:G
"D7" z2 de e4 |"Do" z2 ed d4 |"Dm" z2 de"G7" e3 d |$"C" A2 G2"F7" G4 |"Em" z2 GA"Bbo" A3 G |
"Am" E2"D7" D2"Bø" D3 ^D "E7" x4|$"A7" EGAG"D#7" _B2"D7" =B2 ||1"G" d8 "D#7" x4:|2
"G" x4"Am" x4"A#o" G8 "Em" x4||$"C" B3 G"B7" A3 c |"C" B3 G"B7" A3 c |"C" B2 G2"B7" A2 c2 |
"C#ø" B4"F#7" z2 ^c2 |$"Bm6" d3 B"F#7" ^c3 e |"Bm6" d3 B"F#7" ^c3 e |"Bm" d2 d2"Bb7" d2 d2 |
"Am" d8"D7" "_D.C. al 3rd end." x4 ||3$"Bø" d4"E7" z2 z ^D |"A7" EGAG"D#7" _B2"D7" =B2 |"G6" G8 |]

